X:1075
T:Green grow the rushes O
A:Wyresdale, Lancashire
B:E and J Winder, 1835-41
L:1/8
M:C
O:England
Z:Richard Robinson 
%%TranscriptionNotes:Some guesswork here owing to imperfect legibility
%%TUNEURL: http://www.leeds.ac.uk/music/Info/RRTuneBk/gettune/00001118.html
%%ID:00001118
K:E min
G2(GA) BGGB | ABcd eAAB | cdec Bcdc | AcBA GEE2 ||
dggf   gddg | eaag aeef | gage dBGB | AcBA BE E2 ::
